app/img/rotation-vector/accelerometer.svg

<?xml version="1.0" encoding="UTF-8"?>
<svg width="24px" height="24px" viewBox="0 0 24 24" version="1.1" xmlns="http://www.w3.org/2000/svg" xmlns:xlink="http://www.w3.org/1999/xlink">
    <!-- Generator: Sketch 49 (51002) - http://www.bohemiancoding.com/sketch -->
    <title>icons/sys/Accelerometer</title>
    <desc>Created with Sketch.</desc>
    <defs></defs>
    <g id="icons/sys/Accelerometer" stroke="none" stroke-width="1" fill="none" fill-rule="evenodd">
        <path d="M11.8417,19.5676 C7.5747,19.5676 4.1147,16.1086 4.1147,11.8416 C4.1147,7.5746 7.5747,4.1156 11.8417,4.1156 C16.1097,4.1156 19.5687,7.5746 19.5687,11.8416 C19.5687,16.1086 16.1097,19.5676 11.8417,19.5676 M11.8417,2.2346 C6.5357,2.2346 2.2347,6.5356 2.2347,11.8416 C2.2347,17.1476 6.5357,21.4496 11.8417,21.4496 C17.1477,21.4496 21.4487,17.1476 21.4487,11.8416 C21.4487,6.5356 17.1477,2.2346 11.8417,2.2346" id="Fill-1" fill="#FFFFFF"></path>
        <path d="M11.8417,2.469 C6.6737,2.469 2.4687,6.673 2.4687,11.842 C2.4687,17.01 6.6737,21.215 11.8417,21.215 C17.0097,21.215 21.2147,17.01 21.2147,11.842 C21.2147,6.673 17.0097,2.469 11.8417,2.469 M11.8417,21.684 C6.4147,21.684 1.9997,17.269 1.9997,11.842 C1.9997,6.415 6.4147,2 11.8417,2 C17.2687,2 21.6837,6.415 21.6837,11.842 C21.6837,17.269 17.2687,21.684 11.8417,21.684" id="Fill-3" fill="#222222"></path>
        <path d="M10.5693,3.4992 C10.4553,3.4992 10.3543,3.4152 10.3383,3.2992 C10.3183,3.1712 10.4073,3.0522 10.5353,3.0332 C10.6443,3.0172 10.7543,3.0032 10.8643,2.9912 C10.9933,2.9782 11.1093,3.0692 11.1233,3.1982 C11.1363,3.3272 11.0443,3.4432 10.9153,3.4572 C10.8103,3.4692 10.7073,3.4812 10.6033,3.4972 C10.5913,3.4992 10.5813,3.4992 10.5693,3.4992" id="Fill-6" fill="#0155FC"></path>
        <path d="M7.1181,19.343 C7.0741,19.343 7.0301,19.33 6.9901,19.305 C4.4531,17.65 2.9381,14.86 2.9381,11.842 C2.9381,7.961 5.5311,4.458 9.2451,3.324 C9.3681,3.285 9.5001,3.357 9.5371,3.48 C9.5751,3.604 9.5061,3.735 9.3821,3.773 C5.8641,4.848 3.4071,8.165 3.4071,11.842 C3.4071,14.701 4.8431,17.344 7.2461,18.912 C7.3541,18.983 7.3861,19.128 7.3141,19.237 C7.2691,19.305 7.1941,19.343 7.1181,19.343" id="Fill-8" fill="#0155FC"></path>
        <path d="M19.4706,13.3049 C19.4586,13.3049 19.4466,13.3039 19.4336,13.3019 C19.3056,13.2819 19.2186,13.1609 19.2396,13.0339 C19.2516,12.9509 19.2646,12.8679 19.2756,12.7839 C19.3146,12.4749 19.3336,12.1579 19.3336,11.8419 C19.3336,7.7109 15.9726,4.3499 11.8416,4.3499 C11.6146,4.3499 11.3886,4.3609 11.1656,4.3799 C11.0546,4.3899 10.9446,4.4029 10.8346,4.4169 C10.7096,4.4299 10.5876,4.3439 10.5716,4.2159 C10.5546,4.0869 10.6446,3.9689 10.7726,3.9519 C10.8886,3.9369 11.0056,3.9229 11.1236,3.9129 C11.3606,3.8919 11.6006,3.8809 11.8416,3.8809 C16.2316,3.8809 19.8026,7.4519 19.8026,11.8419 C19.8026,12.1769 19.7826,12.5139 19.7406,12.8419 C19.7296,12.9309 19.7166,13.0189 19.7016,13.1079 C19.6836,13.2229 19.5836,13.3049 19.4706,13.3049" id="Fill-10" fill="#222222"></path>
        <path d="M9.5536,4.6945 C9.4536,4.6945 9.3616,4.6305 9.3296,4.5295 C9.2916,4.4055 9.3606,4.2745 9.4846,4.2355 C9.5646,4.2115 9.6446,4.1875 9.7256,4.1655 C9.8466,4.1295 9.9786,4.2045 10.0136,4.3295 C10.0476,4.4545 9.9746,4.5835 9.8496,4.6175 C9.7736,4.6385 9.6986,4.6605 9.6226,4.6835 C9.6006,4.6905 9.5766,4.6945 9.5536,4.6945" id="Fill-12" fill="#222222"></path>
        <path d="M11.8417,19.802 C7.4517,19.802 3.8817,16.232 3.8817,11.842 C3.8817,8.798 5.6547,5.98 8.4007,4.661 C8.5167,4.604 8.6557,4.654 8.7137,4.771 C8.7697,4.888 8.7207,5.028 8.6037,5.084 C6.0197,6.324 4.3507,8.978 4.3507,11.842 C4.3507,15.973 7.7107,19.333 11.8417,19.333 C14.6027,19.333 17.1317,17.822 18.4437,15.388 C18.5047,15.274 18.6497,15.234 18.7607,15.293 C18.8747,15.355 18.9167,15.496 18.8557,15.611 C17.4627,18.197 14.7757,19.802 11.8417,19.802" id="Fill-14" fill="#222222"></path>
        <path d="M19.1484,14.594 C19.1234,14.594 19.0964,14.59 19.0714,14.581 C18.9494,14.539 18.8844,14.406 18.9264,14.283 C18.9554,14.201 18.9814,14.118 19.0074,14.035 C19.0454,13.912 19.1744,13.844 19.3004,13.88 C19.4234,13.918 19.4944,14.05 19.4554,14.174 C19.4284,14.262 19.4004,14.35 19.3704,14.437 C19.3354,14.533 19.2454,14.594 19.1484,14.594" id="Fill-16" fill="#222222"></path>
        <path d="M6.2773,11.842 C6.2773,8.769 8.7683,6.278 11.8413,6.278 C14.9153,6.278 17.4063,8.769 17.4063,11.842 C17.4063,14.915 14.9153,17.406 11.8413,17.406 C8.7683,17.406 6.2773,14.915 6.2773,11.842" id="Fill-18" fill="#DDDDDD"></path>
        <path d="M10.0409,7.8147 C9.9489,7.8147 9.8619,7.7607 9.8239,7.6707 C9.7739,7.5507 9.8309,7.4147 9.9499,7.3637 L10.1029,7.3017 C10.2239,7.2557 10.3589,7.3147 10.4069,7.4357 C10.4529,7.5567 10.3939,7.6927 10.2719,7.7397 L10.1319,7.7957 C10.1019,7.8087 10.0709,7.8147 10.0409,7.8147" id="Fill-20" fill="#0155FC"></path>
        <path d="M7.539,10.3762 C7.51,10.3762 7.48,10.3712 7.452,10.3592 C7.332,10.3132 7.273,10.1762 7.321,10.0562 C7.653,9.2172 8.213,8.4862 8.94,7.9432 C9.043,7.8662 9.189,7.8872 9.268,7.9912 C9.346,8.0952 9.324,8.2422 9.221,8.3192 C8.563,8.8112 8.058,9.4712 7.757,10.2292 C7.721,10.3202 7.632,10.3762 7.539,10.3762" id="Fill-22" fill="#0155FC"></path>
        <path d="M11.8417,6.5119 C8.9037,6.5119 6.5117,8.9029 6.5117,11.8419 C6.5117,14.7809 8.9037,17.1719 11.8417,17.1719 C14.7807,17.1719 17.1717,14.7809 17.1717,11.8419 C17.1717,8.9029 14.7807,6.5119 11.8417,6.5119 M11.8417,17.6409 C8.6447,17.6409 6.0427,15.0389 6.0427,11.8419 C6.0427,8.6439 8.6447,6.0429 11.8417,6.0429 C15.0387,6.0429 17.6407,8.6439 17.6407,11.8419 C17.6407,15.0389 15.0387,17.6409 11.8417,17.6409" id="Fill-24" fill="#222222"></path>
        <path d="M12.6152,9.1613 L12.6152,6.3313 C12.3622,6.2963 12.1042,6.2773 11.8422,6.2773 C11.5792,6.2773 11.3212,6.2963 11.0682,6.3313 L11.0682,9.1613 C10.1802,9.4173 9.4752,10.1003 9.1902,10.9733 L6.3442,10.9733 C6.3012,11.2573 6.2772,11.5473 6.2772,11.8423 C6.2772,12.0723 6.2922,12.2993 6.3182,12.5213 L9.1362,12.5213 C9.3772,13.4843 10.1182,14.2483 11.0682,14.5223 L11.0682,17.3523 C11.3212,17.3883 11.5792,17.4063 11.8422,17.4063 C12.1042,17.4063 12.3622,17.3883 12.6152,17.3523 L12.6152,14.5223 C13.5652,14.2483 14.3062,13.4843 14.5482,12.5213 L17.3652,12.5213 C17.3912,12.2993 17.4062,12.0723 17.4062,11.8423 C17.4062,11.5473 17.3832,11.2573 17.3392,10.9733 L14.4942,10.9733 C14.2082,10.1003 13.5032,9.4173 12.6152,9.1613" id="Fill-26" fill="#FFFFFF"></path>
        <path d="M11.3027,17.1447 C11.6617,17.1807 12.0227,17.1807 12.3817,17.1447 L12.3817,14.5227 C12.3817,14.4177 12.4497,14.3267 12.5507,14.2967 C13.4217,14.0457 14.1007,13.3437 14.3207,12.4637 C14.3467,12.3607 14.4407,12.2877 14.5477,12.2877 L17.1537,12.2877 C17.1657,12.1357 17.1717,11.9877 17.1717,11.8417 C17.1717,11.6317 17.1587,11.4187 17.1347,11.2077 L14.4927,11.2077 C14.3917,11.2077 14.3017,11.1437 14.2707,11.0467 C14.0077,10.2417 13.3647,9.6217 12.5507,9.3857 C12.4497,9.3577 12.3817,9.2657 12.3817,9.1617 L12.3817,6.5397 C12.0227,6.5027 11.6617,6.5027 11.3027,6.5397 L11.3027,9.1617 C11.3027,9.2657 11.2337,9.3577 11.1327,9.3857 C10.3197,9.6217 9.6757,10.2427 9.4127,11.0467 C9.3817,11.1437 9.2917,11.2077 9.1907,11.2077 L6.5497,11.2077 C6.5247,11.4167 6.5117,11.6297 6.5117,11.8417 C6.5117,11.9907 6.5187,12.1387 6.5307,12.2877 L9.1357,12.2877 C9.2427,12.2877 9.3367,12.3607 9.3637,12.4637 C9.5837,13.3437 10.2617,14.0457 11.1327,14.2967 C11.2337,14.3267 11.3027,14.4177 11.3027,14.5227 L11.3027,17.1447 Z M11.8417,17.6407 C11.5737,17.6407 11.3027,17.6227 11.0357,17.5847 C10.9197,17.5687 10.8337,17.4697 10.8337,17.3527 L10.8337,14.6937 C9.9427,14.3777 9.2437,13.6567 8.9587,12.7557 L6.3197,12.7557 C6.1997,12.7557 6.1007,12.6667 6.0857,12.5497 C6.0577,12.3167 6.0427,12.0787 6.0427,11.8417 C6.0427,11.5387 6.0667,11.2347 6.1137,10.9377 C6.1307,10.8237 6.2297,10.7397 6.3447,10.7397 L9.0257,10.7397 C9.3457,9.9207 10.0047,9.2827 10.8337,8.9907 L10.8337,6.3317 C10.8337,6.2137 10.9197,6.1147 11.0357,6.0987 C11.5707,6.0247 12.1147,6.0247 12.6487,6.0987 C12.7637,6.1147 12.8507,6.2137 12.8507,6.3317 L12.8507,8.9907 C13.6787,9.2827 14.3387,9.9207 14.6577,10.7397 L17.3387,10.7397 C17.4537,10.7397 17.5527,10.8237 17.5707,10.9377 C17.6167,11.2377 17.6407,11.5407 17.6407,11.8417 C17.6407,12.0727 17.6257,12.3097 17.5977,12.5487 C17.5837,12.6667 17.4847,12.7557 17.3647,12.7557 L14.7247,12.7557 C14.4397,13.6567 13.7407,14.3777 12.8507,14.6937 L12.8507,17.3527 C12.8507,17.4697 12.7637,17.5687 12.6487,17.5847 C12.3807,17.6227 12.1107,17.6407 11.8417,17.6407 Z" id="Fill-28" fill="#222222"></path>
        <path d="M11.8417,13.3654 C10.9997,13.3654 10.3187,12.6834 10.3187,11.8424 C10.3187,11.0004 10.9997,10.3174 11.8417,10.3174 C12.6837,10.3174 13.3657,11.0004 13.3657,11.8424 C13.3657,12.6834 12.6837,13.3654 11.8417,13.3654" id="Fill-30" fill="#0155FC"></path>
        <path d="M11.2558,12.0764 C11.1268,12.0764 11.0218,11.9714 11.0218,11.8424 C11.0218,11.3894 11.3898,11.0214 11.8418,11.0214 C11.9718,11.0214 12.0758,11.1264 12.0758,11.2564 C12.0758,11.3854 11.9718,11.4904 11.8418,11.4904 C11.6488,11.4904 11.4898,11.6474 11.4898,11.8424 C11.4898,11.9714 11.3858,12.0764 11.2558,12.0764" id="Fill-32" fill="#FFFFFF"></path>
        <path d="M11.8417,10.552 C11.1307,10.552 10.5527,11.131 10.5527,11.842 C10.5527,12.553 11.1307,13.131 11.8417,13.131 C12.5537,13.131 13.1317,12.553 13.1317,11.842 C13.1317,11.131 12.5537,10.552 11.8417,10.552 M11.8417,13.6 C10.8717,13.6 10.0837,12.812 10.0837,11.842 C10.0837,10.872 10.8717,10.083 11.8417,10.083 C12.8117,10.083 13.6007,10.872 13.6007,11.842 C13.6007,12.812 12.8117,13.6 11.8417,13.6" id="Fill-34" fill="#222222"></path>
    </g>
</svg>

<svg width="24" height="24" viewBox="0 0 24 24" xmlns="http://www.w3.org/2000/svg"><title>icons/sys/Accelerometer</title><g fill="none" fill-rule="evenodd"><path d="M11.842 19.568a7.727 7.727 0 1 1 7.727-7.726 7.726 7.726 0 0 1-7.727 7.726m0-17.333a9.607 9.607 0 0 0-9.607 9.607c0 5.306 4.3 9.608 9.607 9.608 5.306 0 9.607-4.302 9.607-9.608a9.607 9.607 0 0 0-9.607-9.607" fill="#FFF"/><path d="M11.842 2.469c-5.168 0-9.373 4.204-9.373 9.373 0 5.168 4.205 9.373 9.373 9.373 5.168 0 9.373-4.205 9.373-9.373 0-5.169-4.205-9.373-9.373-9.373m0 19.215C6.415 21.684 2 17.269 2 11.842 2 6.415 6.415 2 11.842 2c5.427 0 9.842 4.415 9.842 9.842 0 5.427-4.415 9.842-9.842 9.842" fill="#222"/><path d="M10.57 3.5a.233.233 0 0 1-.232-.2.233.233 0 0 1 .197-.267c.11-.016.22-.03.33-.042a.235.235 0 1 1 .05.466 8.055 8.055 0 0 0-.312.04.194.194 0 0 1-.034.002M7.118 19.343a.241.241 0 0 1-.128-.038 8.887 8.887 0 0 1-4.052-7.463c0-3.881 2.593-7.384 6.307-8.518a.234.234 0 0 1 .292.156.234.234 0 0 1-.155.293c-3.518 1.075-5.975 4.392-5.975 8.069a8.42 8.42 0 0 0 3.84 7.07.234.234 0 0 1-.129.431" fill="#0155FC"/><path d="M19.47 13.305a.233.233 0 0 1-.231-.271 7.551 7.551 0 0 0 .094-1.192c0-4.131-3.36-7.492-7.491-7.492a7.97 7.97 0 0 0-1.007.067.238.238 0 0 1-.263-.201.235.235 0 0 1 .2-.264 8.01 8.01 0 0 1 1.07-.071c4.39 0 7.96 3.57 7.96 7.96a7.909 7.909 0 0 1-.1 1.267.234.234 0 0 1-.231.197M9.554 4.694a.235.235 0 0 1-.07-.458c.08-.024.16-.048.242-.07a.235.235 0 0 1 .124.451 9.7 9.7 0 0 0-.227.067.231.231 0 0 1-.07.01m2.289 15.108c-4.39 0-7.96-3.57-7.96-7.96A8.008 8.008 0 0 1 8.4 4.661a.234.234 0 1 1 .203.423 7.536 7.536 0 0 0-4.253 6.758 7.492 7.492 0 1 0 14.093 3.546.236.236 0 0 1 .317-.095.235.235 0 0 1 .095.318 7.957 7.957 0 0 1-7.014 4.191m7.307-5.208a.234.234 0 0 1-.222-.311c.03-.082.055-.165.081-.248a.236.236 0 0 1 .293-.155c.123.038.194.17.155.294a8.054 8.054 0 0 1-.085.263.237.237 0 0 1-.222.157" fill="#222"/><path d="M6.277 11.842a5.564 5.564 0 1 1 11.13 0 5.564 5.564 0 0 1-11.13 0" fill="#DDD"/><path d="M10.04 7.815a.235.235 0 0 1-.216-.144.235.235 0 0 1 .126-.307l.153-.062a.236.236 0 0 1 .304.134.235.235 0 0 1-.135.304l-.14.056a.229.229 0 0 1-.091.019m-2.502 2.561a.232.232 0 0 1-.218-.32A4.878 4.878 0 0 1 8.94 7.943a.235.235 0 0 1 .281.376 4.42 4.42 0 0 0-1.464 1.91.235.235 0 0 1-.218.147" fill="#0155FC"/><path d="M11.842 6.512a5.337 5.337 0 0 0-5.33 5.33 5.337 5.337 0 0 0 5.33 5.33 5.336 5.336 0 0 0 5.33-5.33 5.336 5.336 0 0 0-5.33-5.33m0 11.129a5.806 5.806 0 0 1-5.8-5.8 5.806 5.806 0 0 1 5.8-5.798 5.806 5.806 0 0 1 5.799 5.799 5.806 5.806 0 0 1-5.8 5.799" fill="#222"/><path d="M12.615 9.161v-2.83a5.638 5.638 0 0 0-1.547 0v2.83a2.793 2.793 0 0 0-1.878 1.812H6.344a5.8 5.8 0 0 0-.026 1.548h2.818a2.794 2.794 0 0 0 1.932 2.001v2.83a5.488 5.488 0 0 0 1.547 0v-2.83a2.797 2.797 0 0 0 1.933-2h2.817a5.671 5.671 0 0 0-.026-1.548h-2.845a2.797 2.797 0 0 0-1.879-1.813" fill="#FFF"/><path d="M11.303 17.145c.359.036.72.036 1.079 0v-2.622c0-.105.068-.196.169-.226a2.56 2.56 0 0 0 1.77-1.833.234.234 0 0 1 .227-.176h2.606a5.655 5.655 0 0 0-.02-1.08h-2.641a.232.232 0 0 1-.222-.161 2.555 2.555 0 0 0-1.72-1.661.231.231 0 0 1-.17-.224V6.54a5.258 5.258 0 0 0-1.078 0v2.622a.232.232 0 0 1-.17.224 2.559 2.559 0 0 0-1.72 1.66.232.232 0 0 1-.222.162H6.55a5.355 5.355 0 0 0-.02 1.08h2.606c.107 0 .2.073.228.176a2.56 2.56 0 0 0 1.769 1.833c.1.03.17.12.17.226v2.622zm.539.496c-.268 0-.54-.018-.806-.056a.234.234 0 0 1-.202-.232v-2.66a3.036 3.036 0 0 1-1.875-1.937h-2.64a.236.236 0 0 1-.233-.206 5.8 5.8 0 0 1 .028-1.612.233.233 0 0 1 .23-.198h2.682a3.016 3.016 0 0 1 1.808-1.75V6.333c0-.118.086-.217.202-.233a5.888 5.888 0 0 1 1.613 0 .235.235 0 0 1 .202.233V8.99c.828.292 1.488.93 1.807 1.749h2.68c.116 0 .215.084.233.198a5.974 5.974 0 0 1 .027 1.61.234.234 0 0 1-.233.208h-2.64a3.036 3.036 0 0 1-1.874 1.938v2.659a.235.235 0 0 1-.202.232 5.75 5.75 0 0 1-.807.056z" fill="#222"/><path d="M11.842 13.365a1.524 1.524 0 1 1 1.524-1.523c0 .841-.682 1.523-1.524 1.523" fill="#0155FC"/><path d="M11.256 12.076a.234.234 0 0 1-.234-.234.82.82 0 0 1 .82-.82.234.234 0 1 1 0 .469.353.353 0 0 0-.352.351.234.234 0 0 1-.234.234" fill="#FFF"/><path d="M11.842 10.552a1.29 1.29 0 1 0 .002 2.578 1.29 1.29 0 0 0-.002-2.578m0 3.048a1.76 1.76 0 0 1 0-3.517c.97 0 1.759.789 1.759 1.759a1.76 1.76 0 0 1-1.76 1.758" fill="#222"/></g></svg>
